X:528
T: ACH WAS WIRD MEIN SCHAETZCHEN DENKEN
N: E0514
O: Europa, Mitteleuropa, Deutschland, Ober- Hessen; Westfalen; Rheinland
R: Liebes - Lied
M: 4/4
L: 1/8
K: G
 | G2BAG2D2 | B2dcB2B2 |
A3GA2dc | B2A2G4 |
G2BAG4 | B2dcB4 |
A3GA2dc | B2A2G4

@@@ Tune index: 4178
